!!!COM: Schiørring, Niels
!!!CDT: 1743-1798
!!!OPR@@DA: Choral-Bog
!!!ONM: 64
!!!OTL@@DA: Lover den Herre, deu mægtige Konge
**kern	**fb	**kern	**kern	**kern	**kern	**kern	**kern	**kern
*part6	*part6	*part6	*part5	*part5	*part4	*part3	*part2	*part1
*staff8	*	*staff7	*staff6	*staff5	*staff4	*staff3	*staff2	*staff1
*clefF4	*	*clefC1	*clefF4	*clefC1	*clefF4	*clefC4	*clefC3	*clefC1
*k[f#]	*	*k[f#]	*k[f#]	*k[f#]	*k[f#]	*k[f#]	*k[f#]	*k[f#]
*G:	*	*G:	*G:	*G:	*G:	*G:	*G:	*G:
*M3/2	*	*M3/2	*M3/2	*M3/2	*M3/2	*M3/2	*M3/2	*M3/2
=1	=1	=1	=1	=1	=1	=1	=1	=1
*	*	*	*^	*^	*	*	*	*
1G	.	2g	1B	1G	2g	1d	2G	2B	2d	2g
.	.	2g	.	.	2g	.	2G	2B	2d	2g
*	*	*	*	*	*	*^	*	*	*	*
2F#	6	2dd	2A	2F#	2dd	2d	2a/	2F#	2A	2d	2dd
*	*	*	*	*	*	*v	*v	*	*	*	*
=2	=2	=2	=2	=2	=2	=2	=2	=2	=2	=2
1G	.	2.b	1G	1G	2.b	1d	2G	2G	2d	2.b
.	.	.	.	.	.	.	2G	2G	2d	.
.	.	4a	.	.	4a	.	.	.	.	4a
2E	6	2g	2G	2E	2g	2c#X	2E	2G	2c#X	2g
=3	=3	=3	=3	=3	=3	=3	=3	=3	=3	=3
1D	.	2.f#	2.A	1D	2.f#	1d	2D	2.A	2d	2.f#
.	.	.	.	.	.	.	2D	.	2d	.
.	.	4e	4G	.	4e	.	.	4G	.	4e
2C	2	2d	2F#	2Cni	2d	2A	2C	2F#	2A	2d
=4	=4	=4	=4	=4	=4	=4	=4	=4	=4	=4
2BB	2	2e	2G	2BB	2e	2c	2BB	2G	2c	2e
2AA	6	2f#	2A	2AA	2f#	2c	2AA	2A	2c	2f#
2GG	.	2g	4ryy@	2GG	4B	2d	2GG	2d	(4B	2g
.	.	.	[4G	.	4ryy@	.	.	.	[4g)	.
=5	=5	=5	=5	=5	=5	=5	=5	=5	=5	=5
2C	6 5	1a	4G]	2C	1a	2e	(2C	(2e	(4g]	1a
.	.	.	4E	.	.	.	.	.	4e	.
2D	.	.	2F#	2D	.	2d	2D)	2d)	2f#)	.
*	*	*	*	*	*	*^	*	*	*	*
2GG	.	2g	2G	2GG	2g	2d	2B\	2GG	2B	2g	2g
=6:|!	=6:|!	=6:|!	=6:|!	=6:|!	=6:|!	=6:|!	=6:|!	=6:|!	=6:|!	=6:|!	=6:|!
2BB	6	2dd	2G	2BB	2dd	2g	2d\	2BB	2d	2g	2dd
*	*	*	*	*	*	*v	*v	*	*	*	*
2AA	4 3	2dd	2ryy@	2AA	2f#	2cc	2AA	2c	2f#	2dd
2GG	8	2dd	2ryy@	2GG	4g	2b	2GG	2B	(4g	2dd
=7	=7	=7	=7	=7	=7	=7	=7	=7	=7	=7
1.C	n7	1.ee	1.ryy	1.C	1.e	1.g	1.C	1.G	1.e	1.ee
=8	=8	=8	=8	=8	=8	=8	=8	=8	=8	=8
1E	5	2b	1.ryy	1E	1e	1g	2E	2G	2g	2b
.	6	2cc	.	.	.	.	2E	2G	2e	2cc
2BB	6	2dd	.	2BB	2d	2g	2BB	2G	2d	2dd
=9	=9	=9	=9	=9	=9	=9	=9	=9	=9	=9
*	*	*	*	*	*	*	*^	*	*	*
2FF#	6	2.dd	2ryy@	2FF#	2d	1a	2F#	2FF#	2A	2.d	2.dd
2DD	.	.	4ryy@	2DD	2f#	.	2D	2DD	2F#	.	.
.	.	4cc	4ryy@	.	.	.	.	.	.	4d	4cc
2GG	.	2b	2G	2GG	2b	2g	2G	2GG	2G	2d	2b
*	*	*	*	*	*	*	*v	*v	*	*	*
=10	=10	=10	=10	=10	=10	=10	=10	=10	=10	=10
*	*	*	*	*	*	*^	*	*	*	*
1.D	.	1.a	1.A	1.D	1.a	1.f#	1.d\	1.D	1.F#	1.d	1.a
*	*	*	*	*	*	*v	*v	*	*	*	*
=11	=11	=11	=11	=11	=11	=11	=11	=11	=11	=11
1D	5	2d	2F#	1D	2d	2A	2D	2F#	2A	2d
.	4 2	2e	2G	.	2e	2B	2D	2G	2B	2e
2C	4 2	2f#	2A	2C	2f#	2d	2C	2A	2d	2f#
=12	=12	=12	=12	=12	=12	=12	=12	=12	=12	=12
2BB	6	2.g	2B	2BB	2.g	4d	2BB	2B	(4d	2.g
.	.	.	.	.	.	2g	.	.	2g)	.
2AA	7	.	4ryy@	2AA	.	.	2AA	2c	.	.
.	6	4a	4ryy@	.	4a	4f#	.	.	4f#	4a
2GG	.	2b	2ryy@	2GG	2d	[2g	2GG	2d	[2g	2b
=13	=13	=13	=13	=13	=13	=13	=13	=13	=13	=13
2C	6 5	1a	1.ryy	2C	2e	2g]	(2C	(2e	(2g]	1a
2D	.	.	.	2D	2d	2f#	2D)	2d)	2f#)	.
2GG	.	2g	.	2GG	2B	2d	2GG	2B	2g	2g
*	*	*	*v	*v	*	*	*	*	*	*
*	*	*	*	*v	*v	*	*	*	*
==	==	==	==	==	==	==	==	==
*-	*-	*-	*-	*-	*-	*-	*-	*-
!!!system-decoration: {(s1,s2,s3,s4)}{(s5,s6)}{(s7,s8)}
!!!RDF**kern: i = editorial accidental
!!!RDF**kern: > = above
!!!RDF**kern: < = below
!!!AGN: chorale
!!!EED: Derek Remeš
!!!EED2: Victor Phan
!!!END: 2023/11/28
!!!ENC: Wolfgang Drescher
!!!EEV: 2023/11/29
!!!title: @{ONM}. @{OTL}